public/tasty-recipes-master/img/svg_icon/seo_3.svg

<svg height="41.999" viewBox="0 0 39.592 41.999" width="39.592" xmlns="http://www.w3.org/2000/svg"><path d="m45.875 26.982a7.516 7.516 0 0 0 -5.948 2.93l-11.537-6.445a7.533 7.533 0 0 0 .419-2.477 7.369 7.369 0 0 0 -.427-2.485l11.528-6.436a7.5 7.5 0 1 0 -1.552-4.561 7.331 7.331 0 0 0 .427 2.485l-11.52 6.437a7.5 7.5 0 1 0 .017 9.113l11.529 6.445a7.5 7.5 0 1 0 7.064-5.006zm0-24.619a5.154 5.154 0 1 1 -5.154 5.154 5.158 5.158 0 0 1 5.154-5.154zm-24.558 23.782a5.154 5.154 0 1 1 5.154-5.154 5.158 5.158 0 0 1 -5.154 5.154zm24.558 13.491a5.154 5.154 0 1 1 5.154-5.154 5.158 5.158 0 0 1 -5.154 5.154z" fill="#00d363" transform="translate(-13.8)"/></svg>

<svg id="https:_www.flaticon.com_free-icon_share_126495" data-name="https://www.flaticon.com/free-icon/share_126495" xmlns="http://www.w3.org/2000/svg" width="39.592" height="41.999" viewBox="0 0 39.592 41.999">
  <path id="Path_224" data-name="Path 224" d="M45.875,26.982a7.516,7.516,0,0,0-5.948,2.93L28.39,23.467a7.533,7.533,0,0,0,.419-2.477,7.369,7.369,0,0,0-.427-2.485L39.91,12.069a7.5,7.5,0,1,0-1.552-4.561,7.331,7.331,0,0,0,.427,2.485L27.265,16.43a7.5,7.5,0,1,0,.017,9.113l11.529,6.445a7.5,7.5,0,1,0,7.064-5.006Zm0-24.619a5.154,5.154,0,1,1-5.154,5.154A5.158,5.158,0,0,1,45.875,2.363ZM21.317,26.145a5.154,5.154,0,1,1,5.154-5.154A5.158,5.158,0,0,1,21.317,26.145ZM45.875,39.636a5.154,5.154,0,1,1,5.154-5.154A5.158,5.158,0,0,1,45.875,39.636Z" transform="translate(-13.8)" fill="#00d363"/>
</svg>
